X: 14510
T: Gan Ainm
R: waltz
M: 3/4
K: Dmajor
G FE|:D2 D2 D2|D F3 E2|D2 F2 B2|A4 AA|
B2 G2 B2|A2 F2 fe|d2 B3_B|=B4 (3A,B,C|
D2 D3 D|D F3 E2|D2 F2 B2|A4 FA|
B3 c d2|d3 e fd|e2 c2 A2|1 A3 G FE:|2 A3 a ag||
|:fa4 f|a3 f ed|e2 c2 A2|A3 g fe|
d4 (3Bcd|f3 d Bd|c2 A2 F2|F4 ff|
g3 a bg|a2 f2 d2|e2 d2 e2|f4 f2|
g3 a bg|a2 f2 ed|d3 e ec|1 d4 ag:|2 d4||

